assets/images/guide/marble-diagram-anatomy.svg

<svg xmlns="http://www.w3.org/2000/svg" xmlns:xlink="http://www.w3.org/1999/xlink" width="640" height="396" version="1.1" viewBox="0 0 640 396"><title>marble-diagram-anatomy</title><g id="Page-1" fill="none" fill-rule="evenodd" stroke="none" stroke-width="1"><g id="marble-diagram-anatomy"><g id="operator-multiplyByTen" transform="translate(21.907724, 168.854835)"><rect id="Rectangle-1" width="468.757" height="54.854" x="0" y="0" stroke="#000" stroke-width="2"/><text id="multiplyByTen" fill="#000" font-family="SourceSansPro-Regular, Source Sans Pro" font-size="21.648" font-weight="normal"><tspan x="169.187" y="35.221">multiplyByTen</tspan></text></g><g id="observable-output" transform="translate(21.907724, 249.101091)"><g id="arrow" stroke="#000" stroke-linecap="square" stroke-width="2" transform="translate(0.000000, 6.772110)"><path id="Line" d="M0.342158664,8 L468.572256,8"/><path id="Line" d="M451.991595,0.338605479 L468.415211,8.46513697"/><path id="Line" d="M451.991595,8.46513697 L468.415211,16.5916685" transform="translate(460.203403, 12.528403) scale(1, -1) translate(-460.203403, -12.528403)"/></g><g id="error" stroke="#000" stroke-linecap="square" stroke-width="2" transform="translate(273.726931, 4.740477)"><path id="Line" d="M0.614437261,0.608056568 L21.5910648,21.36685" transform="translate(10.949077, 10.835375) scale(1, -1) translate(-10.949077, -10.835375)"/><path id="Line" d="M0.614437261,0.608056568 L21.5910648,21.36685" transform="translate(10.949077, 10.835375) scale(-1, -1) translate(-10.949077, -10.835375)"/></g><g id="marble-40" transform="translate(55.429704, 0.000000)"><ellipse id="Oval-1" cx="15.397" cy="15.237" fill="#FF6946" stroke="#000" stroke-width="2" rx="15.397" ry="15.237"/><text id="40" fill="#000" font-family="SourceSansPro-Regular, Source Sans Pro" font-size="16.236" font-weight="normal"><tspan x="6.986" y="20.74">40</tspan></text></g><g id="marble-60" transform="translate(128.651658, 0.000000)"><ellipse id="Oval-1" cx="15.397" cy="15.237" fill="#FFCB46" stroke="#000" stroke-width="2" rx="15.397" ry="15.237"/><text id="60" fill="#000" font-family="SourceSansPro-Regular, Source Sans Pro" font-size="16.236" font-weight="normal"><tspan x="6.986" y="20.74">60</tspan></text></g></g><g id="observable-input" transform="translate(21.907724, 112.354919)"><g id="arrow" stroke="#000" stroke-linecap="square" stroke-width="2" transform="translate(0.000000, 6.772110)"><path id="Line" d="M0.342158664,8 L468.572256,8"/><path id="Line" d="M451.991595,0.338605479 L468.415211,8.46513697"/><path id="Line" d="M451.991595,8.46513697 L468.415211,16.5916685" transform="translate(460.203403, 12.528403) scale(1, -1) translate(-460.203403, -12.528403)"/></g><path id="Line" stroke="#000" stroke-linecap="square" stroke-width="2" d="M427,0.338605479 L427,30.1358876" transform="translate(427.000000, 15.237247) scale(1, -1) translate(-427.000000, -15.237247)"/><g id="marble-4" transform="translate(55.429704, 0.000000)"><ellipse id="Oval-1" cx="15.397" cy="15.237" fill="#FF6946" stroke="#000" stroke-width="2" rx="15.397" ry="15.237"/><text id="4" fill="#000" font-family="SourceSansPro-Regular, Source Sans Pro" font-size="16.236" font-weight="normal"><tspan x="11.02" y="20.063">4</tspan></text></g><g id="marble-6" transform="translate(128.651658, 0.000000)"><ellipse id="Oval-1" cx="15.397" cy="15.237" fill="#FFCB46" stroke="#000" stroke-width="2" rx="15.397" ry="15.237"/><text id="6" fill="#000" font-family="SourceSansPro-Regular, Source Sans Pro" font-size="16.236" font-weight="normal"><tspan x="11.02" y="20.063">6</tspan></text></g><g id="marble-a" transform="translate(269.621027, 0.000000)"><ellipse id="Oval-1" cx="15.397" cy="15.237" fill="#3EA1CB" stroke="#000" stroke-width="2" rx="15.397" ry="15.237"/><text id="a" fill="#000" font-family="SourceSansPro-Regular, Source Sans Pro" font-size="16.236" font-weight="normal"><tspan x="10.899" y="20.063">a</tspan></text></g><g id="marble-8" transform="translate(342.842981, 0.000000)"><ellipse id="Oval-1" cx="15.397" cy="15.237" fill="#82D736" stroke="#000" stroke-width="2" rx="15.397" ry="15.237"/><text id="8" fill="#000" font-family="SourceSansPro-Regular, Source Sans Pro" font-size="16.236" font-weight="normal"><tspan x="11.363" y="20.74">8</tspan></text></g></g><g id="legend-input-observable" transform="translate(8.000000, 10.000000)"><path id="Line" stroke="#B7178C" stroke-linecap="square" stroke-width="2" d="M28.0025541,18.0144658 C4.58101197,34.1485504 -12.2151614,60.0734258 11.4027261,102.132387"/><path id="Line-decoration-1" stroke="#B7178C" stroke-linecap="square" stroke-width="2" d="M11.4027261,102.132387 L8.73055297,91.2466396 L3.49896033,94.1844003 L11.4027261,102.132387 Z"/><text id="This-is-time-flowing" fill="#B7178C" font-family="SourceSansPro-Regular, Source Sans Pro" font-size="13.087" font-weight="normal"><tspan x="36.815" y="13">This is time flowing from </tspan> <tspan x="36.815" y="30">left to right to represent </tspan> <tspan x="36.815" y="47">the execution of the</tspan> <tspan x="36.815" y="64">input Observable.</tspan></text></g><g id="legend-next" transform="translate(112.716977, 10.000000)"><text id="These-are-values-emi" fill="#B7178C" font-family="SourceSansPro-Regular, Source Sans Pro" font-size="13.087" font-weight="normal"><tspan x="114.362" y="13">These are values emitted </tspan> <tspan x="131.304" y="30">by the Observable.</tspan></text><path id="Line" stroke="#B7178C" stroke-linecap="square" stroke-width="2" d="M128.850968,41.3513873 L0.409050692,98.6701421"/><path id="Line-decoration-1" stroke="#B7178C" stroke-linecap="square" stroke-width="2" d="M0.409050692,98.6701421 L11.4941232,97.0084658 L9.04897888,91.5292989 L0.409050692,98.6701421 Z"/><path id="Line" stroke="#B7178C" stroke-linecap="square" stroke-width="2" d="M147.6673,41.3513873 L67.4933642,97.0324634"/><path id="Line-decoration-1" stroke="#B7178C" stroke-linecap="square" stroke-width="2" d="M67.4933642,97.0324634 L78.0752001,93.3358772 L74.652629,88.4077937 L67.4933642,97.0324634 Z"/><path id="Line" stroke="#B7178C" stroke-linecap="square" stroke-width="2" d="M186.936166,38.0760299 L193.480977,96.213624"/><path id="Line-decoration-1" stroke="#B7178C" stroke-linecap="square" stroke-width="2" d="M193.480977,96.213624 L195.253973,85.145811 L189.291635,85.8170183 L193.480977,96.213624 Z"/><path id="Line" stroke="#B7178C" stroke-linecap="square" stroke-width="2" d="M204.934397,36.4383512 L259.747189,97.0324634"/><path id="Line-decoration-1" stroke="#B7178C" stroke-linecap="square" stroke-width="2" d="M259.747189,97.0324634 L254.726883,87.0106607 L250.277287,91.0357186 L259.747189,97.0324634 Z"/></g><g id="legend-complete" transform="translate(445.684240, 10.000000)"><text id="This-vertical-line-r" fill="#B7178C" font-family="SourceSansPro-Regular, Source Sans Pro" font-size="13.087" font-weight="normal"><tspan x="22.75" y="13">This vertical line represents</tspan> <tspan x="22.75" y="30">the &quot;complete&quot; notification</tspan> <tspan x="22.75" y="47">and indicates that the</tspan> <tspan x="22.75" y="64">Observable has completed</tspan> <tspan x="22.75" y="81">successfully.</tspan></text><path id="Line" stroke="#B7178C" stroke-linecap="square" stroke-width="2" d="M13.937921,15.327927 C-0.0407050176,25.019385 -2.50011646,51.8647248 2.86335484,88.0252305"/><path id="Line-decoration-1" stroke="#B7178C" stroke-linecap="square" stroke-width="2" d="M2.86335484,88.0252305 L4.24632558,76.9019489 L-1.6887438,77.7822622 L2.86335484,88.0252305 Z"/></g><g id="legend-operator" transform="translate(495.588425, 135.282421)"><text id="This-box-indicates-t" fill="#B7178C" font-family="SourceSansPro-Regular, Source Sans Pro" font-size="13.087" font-weight="normal"><tspan x="8.024" y="44.116">This box indicates the </tspan> <tspan x="8.024" y="61.116">operator which takes </tspan> <tspan x="8.024" y="78.116">the input Observable</tspan> <tspan x="8.024" y="95.116">(above) to produce the </tspan> <tspan x="8.024" y="112.116">output Observable </tspan> <tspan x="8.024" y="129.116">(below). The text inside </tspan> <tspan x="8.024" y="146.116">the box shows the </tspan> <tspan x="8.024" y="163.116">nature of the </tspan> <tspan x="8.024" y="180.116">transformation.</tspan></text><path id="Line" stroke="#B7178C" stroke-linecap="square" stroke-width="2" d="M73.4969349,23.2939021 C73.4969349,4.28895214 27.5472993,-17.7526557 0.0451347018,23.293903"/><path id="Line-decoration-1" stroke="#B7178C" stroke-linecap="square" stroke-width="2" d="M0.0451347018,23.293903 L8.54901533,15.9915736 L3.56444995,12.651797 L0.0451347018,23.293903 Z"/></g><g id="legend-output-observable" transform="translate(16.181014, 281.035826)"><text id="This-Observable-is-t" fill="#B7178C" font-family="SourceSansPro-Regular, Source Sans Pro" font-size="13.087" font-weight="normal"><tspan x="26.179" y="50.667">This Observable is the</tspan> <tspan x="26.179" y="67.667">output of the operator</tspan> <tspan x="26.179" y="84.667">call.</tspan></text><path id="Line" stroke="#B7178C" stroke-linecap="square" stroke-width="2" d="M17.5231885,54.8015884 C5.81341019,50.2369613 -11.4758405,28.1704708 11.8624701,0.409419677"/><path id="Line-decoration-1" stroke="#B7178C" stroke-linecap="square" stroke-width="2" d="M11.8624701,0.409419677 L2.61633476,6.7457421 L7.20901328,10.6067399 L11.8624701,0.409419677 Z"/></g><g id="legend-error" transform="translate(250.976111, 280.216987)"><text id="This-X-represents-an" fill="#B7178C" font-family="SourceSansPro-Regular, Source Sans Pro" font-size="13.087" font-weight="normal"><tspan x="21.271" y="35.928">This X represents an error emitted by</tspan> <tspan x="21.271" y="52.928">the output Observable, indicating</tspan> <tspan x="21.271" y="69.928">abnormal termination. Neither values</tspan> <tspan x="21.271" y="86.928">nor the vertical will be delivered </tspan> <tspan x="21.271" y="103.928">thereafter.</tspan></text><path id="Line" stroke="#B7178C" stroke-linecap="square" stroke-width="2" d="M11.4811397,57.3948212 C-6.70631725,51.504022 -3.32492938,12.1184845 25.7701936,0.409419677"/><path id="Line-decoration-1" stroke="#B7178C" stroke-linecap="square" stroke-width="2" d="M25.7701936,0.409419677 L14.6310746,1.65843022 L16.8711257,7.22459325 L25.7701936,0.409419677 Z"/></g></g></g></svg>

<svg xmlns="http://www.w3.org/2000/svg" width="698.548" height="346.145" viewBox="0 0 698.548 346.145"><g transform="translate(-6.886 -9)"><g transform="translate(21.908 168.855)"><rect width="468.757" height="54.854" fill="none" stroke="#000" stroke-width="2"/><text transform="translate(169.187 35.221)" font-size="21.648" font-family="Helvetica"><tspan x="0" y="0">multiplyByTen</tspan></text></g><g transform="translate(21.908 249.101)"><g transform="translate(0 6.772)"><path d="M.342,8h468.23" fill="none" stroke="#000" stroke-linecap="square" stroke-width="2" fill-rule="evenodd"/><path d="M451.992.339l16.424,8.127" fill="none" stroke="#000" stroke-linecap="square" stroke-width="2" fill-rule="evenodd"/><path d="M451.992-8.465l16.424-8.127" transform="translate(0 25.057)" fill="none" stroke="#000" stroke-linecap="square" stroke-width="2" fill-rule="evenodd"/></g><g transform="translate(273.727 4.74)"><path d="M.614-.608,21.591-21.367" transform="translate(0 21.671)" fill="none" stroke="#000" stroke-linecap="square" stroke-width="2" fill-rule="evenodd"/><path d="M.614.608,21.591,21.367" transform="translate(21.898 21.671) rotate(180)" fill="none" stroke="#000" stroke-linecap="square" stroke-width="2" fill-rule="evenodd"/></g><g transform="translate(55.43)"><ellipse cx="15.397" cy="15.237" rx="15.397" ry="15.237" transform="translate(0 0)" fill="#ff6946" stroke="#000" stroke-width="2"/><text transform="translate(6.986 20.74)" font-size="16.236" font-family="Helvetica"><tspan x="0" y="0">40</tspan></text></g><g transform="translate(128.652)"><ellipse cx="15.397" cy="15.237" rx="15.397" ry="15.237" transform="translate(0 0)" fill="#ffcb46" stroke="#000" stroke-width="2"/><text transform="translate(6.986 20.74)" font-size="16.236" font-family="Helvetica"><tspan x="0" y="0">60</tspan></text></g></g><g transform="translate(21.908 112.355)"><g transform="translate(0 6.772)"><path d="M.342,8h468.23" fill="none" stroke="#000" stroke-linecap="square" stroke-width="2" fill-rule="evenodd"/><path d="M451.992.339l16.424,8.127" fill="none" stroke="#000" stroke-linecap="square" stroke-width="2" fill-rule="evenodd"/><path d="M451.992-8.465l16.424-8.127" transform="translate(0 25.057)" fill="none" stroke="#000" stroke-linecap="square" stroke-width="2" fill-rule="evenodd"/></g><path d="M427-.339v-29.8" transform="translate(0 30.474)" fill="none" stroke="#000" stroke-linecap="square" stroke-width="2" fill-rule="evenodd"/><g transform="translate(55.43)"><ellipse cx="15.397" cy="15.237" rx="15.397" ry="15.237" transform="translate(0 0)" fill="#ff6946" stroke="#000" stroke-width="2"/><text transform="translate(11.02 20.063)" font-size="16.236" font-family="Helvetica"><tspan x="0" y="0">4</tspan></text></g><g transform="translate(128.652)"><ellipse cx="15.397" cy="15.237" rx="15.397" ry="15.237" transform="translate(0 0)" fill="#ffcb46" stroke="#000" stroke-width="2"/><text transform="translate(11.02 20.063)" font-size="16.236" font-family="Helvetica"><tspan x="0" y="0">6</tspan></text></g><g transform="translate(269.621)"><ellipse cx="15.397" cy="15.237" rx="15.397" ry="15.237" transform="translate(0 0)" fill="#3ea1cb" stroke="#000" stroke-width="2"/><text transform="translate(10.899 20.063)" font-size="16.236" font-family="Helvetica"><tspan x="0" y="0">a</tspan></text></g><g transform="translate(342.843)"><ellipse cx="15.397" cy="15.237" rx="15.397" ry="15.237" transform="translate(0 0)" fill="#82d736" stroke="#000" stroke-width="2"/><text transform="translate(11.363 20.74)" font-size="16.236" font-family="Helvetica"><tspan x="0" y="0">8</tspan></text></g></g><g transform="translate(8 10)"><path d="M28,18.014C4.581,34.149-12.215,60.073,11.4,102.132" fill="none" stroke="#b7178c" stroke-linecap="square" stroke-width="2" fill-rule="evenodd"/><path d="M11.4,102.132,8.731,91.247,3.5,94.184Z" fill="none" stroke="#b7178c" stroke-linecap="square" stroke-width="2" fill-rule="evenodd"/><text transform="translate(95.815 13)" fill="#b7178c" font-size="13.087" font-family="PingFangSC-Regular, PingFang SC"><tspan x="-58.891" y="0">来自输入流的时间线</tspan><tspan y="0" font-family="Helvetica"></tspan><tspan x="-39.261" y="17">（从左到右）</tspan></text></g><g transform="translate(112.717 10)"><text transform="translate(94.362 27)" fill="#b7178c" font-size="13.087" font-family="PingFangSC-Regular, PingFang SC"><tspan x="0" y="0">此</tspan><tspan y="0" xml:space="preserve" font-family="Helvetica"> Observable </tspan><tspan y="0">发出的各个值</tspan></text><path d="M128.851,41.351.409,98.67" fill="none" stroke="#b7178c" stroke-linecap="square" stroke-width="2" fill-rule="evenodd"/><path d="M.409,98.67l11.085-1.662L9.049,91.529Z" fill="none" stroke="#b7178c" stroke-linecap="square" stroke-width="2" fill-rule="evenodd"/><path d="M147.667,41.351,67.493,97.032" fill="none" stroke="#b7178c" stroke-linecap="square" stroke-width="2" fill-rule="evenodd"/><path d="M67.493,97.032l10.582-3.7-3.423-4.928Z" fill="none" stroke="#b7178c" stroke-linecap="square" stroke-width="2" fill-rule="evenodd"/><path d="M186.936,38.076l6.545,58.138" fill="none" stroke="#b7178c" stroke-linecap="square" stroke-width="2" fill-rule="evenodd"/><path d="M193.481,96.214l1.773-11.068-5.962.671Z" fill="none" stroke="#b7178c" stroke-linecap="square" stroke-width="2" fill-rule="evenodd"/><path d="M204.934,36.438l54.813,60.594" fill="none" stroke="#b7178c" stroke-linecap="square" stroke-width="2" fill-rule="evenodd"/><path d="M259.747,97.032l-5.02-10.022-4.45,4.025Z" fill="none" stroke="#b7178c" stroke-linecap="square" stroke-width="2" fill-rule="evenodd"/></g><g transform="translate(445.684 10)"><text transform="translate(22.75 13)" fill="#b7178c" font-size="13.087" font-family="PingFangSC-Regular, PingFang SC"><tspan x="0" y="0">这个竖线表示「完成（</tspan><tspan y="0" font-family="Helvetica">complete</tspan><tspan y="0">）」通知</tspan><tspan y="0" font-family="Helvetica"></tspan><tspan x="0" y="17">表示此</tspan><tspan y="17" xml:space="preserve" font-family="Helvetica"> Observable </tspan><tspan y="17">已成功结束</tspan></text><path d="M13.938,15.328C-.041,25.019-2.5,51.865,2.863,88.025" fill="none" stroke="#b7178c" stroke-linecap="square" stroke-width="2" fill-rule="evenodd"/><path d="M2.863,88.025,4.246,76.9l-5.935.88Z" fill="none" stroke="#b7178c" stroke-linecap="square" stroke-width="2" fill-rule="evenodd"/></g><g transform="translate(495.588 135.282)"><text transform="translate(8.024 44.116)" fill="#b7178c" font-size="13.087" font-family="PingFangSC-Regular, PingFang SC"><tspan x="0" y="0">这个方框表示操作符，</tspan><tspan y="0" font-family="Helvetica"></tspan><tspan x="0" y="17">它接受上方的输入</tspan><tspan y="17" xml:space="preserve" font-family="Helvetica"> Observable</tspan><tspan y="17">，</tspan><tspan y="17" font-family="Helvetica"></tspan><tspan x="0" y="34">以生成输出下方的</tspan><tspan y="34" xml:space="preserve" font-family="Helvetica"> Observable</tspan><tspan x="0" y="51">方框中的文本表示转换的类型</tspan></text><path d="M73.5,23.294c0-19-45.95-41.047-73.452,0" fill="none" stroke="#b7178c" stroke-linecap="square" stroke-width="2" fill-rule="evenodd"/><path d="M.045,23.294l8.5-7.3-4.985-3.34Z" fill="none" stroke="#b7178c" stroke-linecap="square" stroke-width="2" fill-rule="evenodd"/></g><g transform="translate(16.181 281.036)"><text transform="translate(26.179 50.667)" fill="#b7178c" font-size="13.087" font-family="PingFangSC-Regular, PingFang SC"><tspan x="0" y="0">此</tspan><tspan y="0" xml:space="preserve" font-family="Helvetica"> Observable </tspan><tspan y="0">来自</tspan><tspan y="0" font-family="Helvetica"></tspan><tspan x="0" y="17">操作符调用的结果</tspan></text><path d="M17.523,54.8c-11.71-4.565-29-26.631-5.661-54.392" fill="none" stroke="#b7178c" stroke-linecap="square" stroke-width="2" fill-rule="evenodd"/><path d="M11.862.409,2.616,6.746l4.593,3.861Z" fill="none" stroke="#b7178c" stroke-linecap="square" stroke-width="2" fill-rule="evenodd"/></g><g transform="translate(250.976 280.217)"><text transform="translate(21.271 53.928)" fill="#b7178c" font-size="13.087" font-family="PingFangSC-Regular, PingFang SC"><tspan x="0" y="0">这个</tspan><tspan y="0" xml:space="preserve" font-family="Helvetica"> X </tspan><tspan y="0">表示输出流上的错误，表示非正常终止</tspan><tspan y="0" font-family="Helvetica"></tspan><tspan x="0" y="17">此后，无论是值还是竖线都不会再发出</tspan></text><path d="M11.481,57.395C-6.706,51.5-3.325,12.118,25.77.409" fill="none" stroke="#b7178c" stroke-linecap="square" stroke-width="2" fill-rule="evenodd"/><path d="M25.77.409,14.631,1.658l2.24,5.566Z" fill="none" stroke="#b7178c" stroke-linecap="square" stroke-width="2" fill-rule="evenodd"/></g></g></svg>
